small/extra/apps/standard/eog.svg

<?xml version="1.0" encoding="UTF-8" standalone="no"?>
<!-- Created with Inkscape (http://www.inkscape.org/) -->
<svg id="svg2" xmlns:rdf="http://www.w3.org/1999/02/22-rdf-syntax-ns#" xmlns="http://www.w3.org/2000/svg" height="100%" width="100%" version="1.1" xmlns:cc="http://creativecommons.org/ns#" viewBox="0 0 512 512" xmlns:dc="http://purl.org/dc/elements/1.1/">
 <metadata id="metadata62">
  <rdf:RDF>
   <cc:Work rdf:about="">
    <dc:format>image/svg+xml</dc:format>
    <dc:type rdf:resource="http://purl.org/dc/dcmitype/StillImage"/>
   </cc:Work>
  </rdf:RDF>
 </metadata>
 <path id="path4" d="m26 0c-14.397 0-26 11.603-26 26v460c0 14.397 11.603 26 26 26h460c14.397 0 26-11.603 26-26v-460c0-14.397-11.6-26-26-26h-460" fill="#0078ad"/>
 <text id="text6" style="word-spacing:0;letter-spacing:0" font-size="129.23px" line-height="125%" y="91.57" x="-118.51" font-family="Gentium Book Basic">
  <tspan id="tspan8" y="91.57" x="-118.51"/>
 </text>
 <text id="text10" style="text-anchor:middle" transform="scale(4.0128 .2492)" font-size="46.954px" y="18.302999" x="167.55" font-family="Arial"/>
 <text id="text12" style="word-spacing:0;letter-spacing:0" font-size="129.23px" line-height="125%" y="11.572" x="462.76001" font-family="Gentium Book Basic">
  <tspan id="tspan14" y="11.572" x="462.76001"/>
 </text>
 <text id="text16" style="text-anchor:middle" transform="scale(4.0128 .2492)" font-size="46.954px" y="-302.73001" x="312.39999" font-family="Arial"/>
 <text id="text18" style="word-spacing:0;letter-spacing:0" font-size="129.23px" line-height="125%" y="-169.69" x="-608.82001" font-family="Gentium Book Basic">
  <tspan id="tspan20" y="-169.69" x="-608.82001"/>
 </text>
 <text id="text22" style="text-anchor:middle" transform="scale(4.0128 .2492)" font-size="46.954px" y="-1030.08" x="45.360001" font-family="Arial"/>
 <text id="text24" style="word-spacing:0;letter-spacing:0" font-size="129.23px" line-height="125%" y="-386.16" x="489.23001" font-family="Gentium Book Basic">
  <tspan id="tspan26" y="-386.16" x="489.23001"/>
 </text>
 <text id="text28" style="text-anchor:middle" transform="scale(4.0128 .2492)" font-size="46.954px" y="-1898.75" x="319" font-family="Arial"/>
 <text id="text30" style="word-spacing:0;letter-spacing:0" font-size="129.23px" line-height="125%" y="-466.17001" x="1070.5" font-family="Gentium Book Basic">
  <tspan id="tspan32" y="-466.17001" x="1070.5"/>
 </text>
 <text id="text34" style="text-anchor:middle" transform="scale(4.0128 .2492)" font-size="46.954px" y="-2219.79" x="463.85001" font-family="Arial"/>
 <text id="text36" style="word-spacing:0;letter-spacing:0" font-size="129.23px" line-height="125%" y="-938.57001" x="681.38" font-family="Gentium Book Basic">
  <tspan id="tspan38" y="-938.57001" x="681.38"/>
 </text>
 <text id="text40" style="text-anchor:middle" transform="scale(4.0128 .2492)" font-size="46.954px" y="-4115.4399" x="366.88" font-family="Arial"/>
 <text id="text42" style="word-spacing:0;letter-spacing:0" font-size="129.23px" line-height="125%" y="-1018.57" x="1262.64" font-family="Gentium Book Basic">
  <tspan id="tspan44" y="-1018.57" x="1262.64"/>
 </text>
 <text id="text46" style="text-anchor:middle" transform="scale(4.0128 .2492)" font-size="46.954px" y="-4436.46" x="511.73001" font-family="Arial"/>
 <text id="text48" style="word-spacing:0;letter-spacing:0" font-size="208.33px" line-height="125%" y="396.14999" x="-570.15997" font-family="Gentium Book Basic">
  <tspan id="tspan50" y="396.14999" x="-570.15997"/>
 </text>
 <g id="g52" stroke-width="3.18">
  <path id="path54" opacity=".25" d="m60.906 42.594c-10.168 0-18.313 8.144-18.313 18.313v390.19c0 5.14 2.095 9.745 5.469 13.06l47.844 47.844h390.09c14.397 0 26-11.603 26-26v-390.09l-47.69-47.687c-3.328-3.469-7.997-5.625-13.219-5.625h-390.19z" stroke="#000"/>
  <path id="path56" d="m60.912 42.59c-10.168 0-18.322 8.154-18.322 18.322v390.18c0 10.168 8.154 18.322 18.322 18.322h390.18c10.168 0 18.322-8.154 18.322-18.322v-390.18c0-10.168-8.154-18.322-18.322-18.322h-390.18zm44.955 35.593h300.27c7.827 0 14.167 4.581 14.167 10.212v216.06c0 5.631-6.341 10.162-14.167 10.162h-300.27c-7.83 0-14.17-4.53-14.17-10.16v-216.06c0-5.631 6.341-10.212 14.167-10.212zm99.12 29.24c-18.921 0-34.24 15.321-34.24 34.24 0 18.921 15.321 34.29 34.24 34.29 18.921 0 34.29-15.371 34.29-34.29 0-18.921-15.371-34.24-34.29-34.24zm96.32 70.69c-5.59 0.003-11.724 0.87-18.473 2.753-19.18 7.858-58.16 67.56-73.89 53.47-48.815-65.39-81.45-0.948-90.36 51.06h262.47c-24.13-49.1-34.23-107.3-79.75-107.28z" stroke="#fff" fill="#fff"/>
 </g>
</svg>

<?xml version="1.0" encoding="UTF-8" standalone="no"?>
<!-- Created with Inkscape (http://www.inkscape.org/) -->

<svg
   xmlns:dc="http://purl.org/dc/elements/1.1/"
   xmlns:cc="http://creativecommons.org/ns#"
   xmlns:rdf="http://www.w3.org/1999/02/22-rdf-syntax-ns#"
   xmlns:svg="http://www.w3.org/2000/svg"
   xmlns="http://www.w3.org/2000/svg"
   xmlns:inkscape="http://www.inkscape.org/namespaces/inkscape"
   version="1.1"
   width="100%"
   height="100%"
   viewBox="0 0 512 512"
   id="svg2">
  <metadata
     id="metadata62">
    <rdf:RDF>
      <cc:Work
         rdf:about="">
        <dc:format>image/svg+xml</dc:format>
        <dc:type
           rdf:resource="http://purl.org/dc/dcmitype/StillImage" />
      </cc:Work>
    </rdf:RDF>
  </metadata>
  <defs
     id="defs60" />
  <path
     d="M 26,0 C 11.603,0 0,11.603 0,26 v 460 c 0,14.397 11.603,26 26,26 h 460 c 14.397,0 26,-11.603 26,-26 V 26 C 512,11.603 500.397,0 486,0 H 26"
     inkscape:connector-curvature="0"
     id="path4"
     style="fill:#0078ad" />
  <text
     x="-118.51"
     y="91.57"
     id="text6"
     style="font-size:129.22999573px;line-height:125%;letter-spacing:0;word-spacing:0;font-family:Gentium Book Basic">
    <tspan
       x="-118.51"
       y="91.57"
       id="tspan8" />
  </text>
  <text
     x="167.55"
     y="18.302999"
     transform="scale(4.0128,0.2492)"
     id="text10"
     style="font-size:46.95399857px;text-anchor:middle;font-family:Arial" />
  <text
     x="462.76001"
     y="11.572"
     id="text12"
     style="font-size:129.22999573px;line-height:125%;letter-spacing:0;word-spacing:0;font-family:Gentium Book Basic">
    <tspan
       x="462.76001"
       y="11.572"
       id="tspan14" />
  </text>
  <text
     x="312.39999"
     y="-302.73001"
     transform="scale(4.0128,0.2492)"
     id="text16"
     style="font-size:46.95399857px;text-anchor:middle;font-family:Arial" />
  <text
     x="-608.82001"
     y="-169.69"
     id="text18"
     style="font-size:129.22999573px;line-height:125%;letter-spacing:0;word-spacing:0;font-family:Gentium Book Basic">
    <tspan
       x="-608.82001"
       y="-169.69"
       id="tspan20" />
  </text>
  <text
     x="45.360001"
     y="-1030.08"
     transform="scale(4.0128,0.2492)"
     id="text22"
     style="font-size:46.95399857px;text-anchor:middle;font-family:Arial" />
  <text
     x="489.23001"
     y="-386.16"
     id="text24"
     style="font-size:129.22999573px;line-height:125%;letter-spacing:0;word-spacing:0;font-family:Gentium Book Basic">
    <tspan
       x="489.23001"
       y="-386.16"
       id="tspan26" />
  </text>
  <text
     x="319"
     y="-1898.75"
     transform="scale(4.0128,0.2492)"
     id="text28"
     style="font-size:46.95399857px;text-anchor:middle;font-family:Arial" />
  <text
     x="1070.5"
     y="-466.17001"
     id="text30"
     style="font-size:129.22999573px;line-height:125%;letter-spacing:0;word-spacing:0;font-family:Gentium Book Basic">
    <tspan
       x="1070.5"
       y="-466.17001"
       id="tspan32" />
  </text>
  <text
     x="463.85001"
     y="-2219.79"
     transform="scale(4.0128,0.2492)"
     id="text34"
     style="font-size:46.95399857px;text-anchor:middle;font-family:Arial" />
  <text
     x="681.38"
     y="-938.57001"
     id="text36"
     style="font-size:129.22999573px;line-height:125%;letter-spacing:0;word-spacing:0;font-family:Gentium Book Basic">
    <tspan
       x="681.38"
       y="-938.57001"
       id="tspan38" />
  </text>
  <text
     x="366.88"
     y="-4115.4399"
     transform="scale(4.0128,0.2492)"
     id="text40"
     style="font-size:46.95399857px;text-anchor:middle;font-family:Arial" />
  <text
     x="1262.64"
     y="-1018.57"
     id="text42"
     style="font-size:129.22999573px;line-height:125%;letter-spacing:0;word-spacing:0;font-family:Gentium Book Basic">
    <tspan
       x="1262.64"
       y="-1018.57"
       id="tspan44" />
  </text>
  <text
     x="511.73001"
     y="-4436.46"
     transform="scale(4.0128,0.2492)"
     id="text46"
     style="font-size:46.95399857px;text-anchor:middle;font-family:Arial" />
  <text
     x="-570.15997"
     y="396.14999"
     id="text48"
     style="font-size:208.33000183px;line-height:125%;letter-spacing:0;word-spacing:0;font-family:Gentium Book Basic">
    <tspan
       x="-570.15997"
       y="396.14999"
       id="tspan50" />
  </text>
  <g
     id="g52"
     style="stroke-width:3.18000007">
    <path
       d="m 60.906,42.594 c -10.168,0 -18.313,8.144 -18.313,18.313 v 390.19 c 0,5.14 2.095,9.745 5.469,13.06 l 47.844,47.844 h 390.09 c 14.397,0 26,-11.603 26,-26 V 95.911 L 464.308,48.223 c -3.328,-3.469 -7.997,-5.625 -13.219,-5.625 H 60.899 z"
       inkscape:connector-curvature="0"
       id="path54"
       style="opacity:0.25;stroke:#000000" />
    <path
       d="m 60.912,42.59 c -10.168,0 -18.322,8.154 -18.322,18.322 v 390.18 c 0,10.168 8.154,18.322 18.322,18.322 h 390.18 c 10.168,0 18.322,-8.154 18.322,-18.322 V 60.912 c 0,-10.168 -8.154,-18.322 -18.322,-18.322 H 60.912 z m 44.955,35.593 h 300.27 c 7.827,0 14.167,4.581 14.167,10.212 v 216.06 c 0,5.631 -6.341,10.162 -14.167,10.162 H 105.867 C 98.04,314.617 91.7,310.086 91.7,304.455 V 88.395 c 0,-5.631 6.341,-10.212 14.167,-10.212 z m 99.12,29.24 c -18.921,0 -34.24,15.321 -34.24,34.24 0,18.921 15.321,34.29 34.24,34.29 18.921,0 34.29,-15.371 34.29,-34.29 0,-18.921 -15.371,-34.24 -34.29,-34.24 z m 96.32,70.69 c -5.59,0.003 -11.724,0.87 -18.473,2.753 -19.18,7.858 -58.16,67.56 -73.89,53.47 -48.815,-65.39 -81.45,-0.948 -90.36,51.06 h 262.47 c -24.13,-49.1 -34.23,-107.3 -79.75,-107.28 z"
       inkscape:connector-curvature="0"
       id="path56"
       style="fill:#ffffff;stroke:#ffffff" />
  </g>
</svg>
